brandFactory_export/1.Light/Candado abierto_1Light.svg

<?xml version="1.0" encoding="UTF-8"?>
<svg width="24px" height="24px" viewBox="0 0 24 24" version="1.1" xmlns="http://www.w3.org/2000/svg" xmlns:xlink="http://www.w3.org/1999/xlink">
    <title>1.Light/Candado abierto_1Light</title>
    <g id="Symbols" stroke="none" stroke-width="1" fill="none" fill-rule="evenodd">
        <g id="1.Light/Candado-abierto_1Light" fill="#5CB615" fill-rule="nonzero">
            <path d="M19.7630252,10.8336134 C19.7663866,10.7865546 19.8235294,9.86890756 19.2319328,9.22352941 C18.8151261,8.7697479 18.1563025,8.54453782 17.2756303,8.54453782 C14.1495798,8.54453782 6.8789916,8.55462185 6.50252101,8.55462185 L6.42521008,8.55462185 C6.42184874,8.55462185 6.38151261,8.5512605 6.30756303,8.5512605 C6.00504202,8.5512605 5.18151261,8.60168067 4.61680672,9.12941176 C4.21344538,9.50588235 4.00840336,10.0773109 4.00840336,10.8235294 L4.00840336,20.3596639 C4.00504202,20.4033613 3.95798319,21.3277311 4.55630252,21.9697479 C4.9697479,22.4134454 5.61848739,22.6386555 6.47563025,22.6386555 L17.2756303,22.6319328 C17.3193277,22.6285714 18.4420168,22.6991597 19.1546218,22.0268908 C19.5579832,21.6436975 19.7630252,21.0756303 19.7630252,20.3361345 C19.7596639,17.2033613 19.7630252,10.8336134 19.7630252,10.8336134 L19.7630252,10.8336134 Z M20.7411765,10.8739496 C20.7411765,10.8739496 20.7378151,17.2134454 20.7411765,20.3361345 C20.7411765,21.3613445 20.4319328,22.1781513 19.8168067,22.7529412 C18.7915966,23.7176471 17.2991597,23.6235294 17.2420168,23.6168067 L6.47563025,23.6235294 C5.32941176,23.6235294 4.43865546,23.287395 3.8302521,22.6319328 C2.94285714,21.6705882 3.02360715,20.3764706 3.02689076,20.3226891 L3.02689076,10.8268908 C3.02689076,9.78823529 3.3394958,8.97142857 3.96134454,8.4 C4.6302521,7.78151261 5.48067227,7.62016807 6.01176471,7.57983193 L6.01176471,5.89579832 C6.01512605,0.332773109 10.6672269,0.0100840336 11.5983193,0 C11.7731092,0.00336134454 11.9613445,0 12.1260504,0.00336134454 C13.1815126,0.0302521008 16.6907563,0.403361345 17.5680672,4.1512605 C17.6319328,4.41344538 17.4672269,4.6789916 17.205042,4.74285714 C16.9428571,4.80672269 16.6840336,4.64537815 16.6201681,4.38655462 C16.6201681,4.38319328 16.6201681,4.37983193 16.6168067,4.37647059 C15.9008403,1.31764706 12.9798319,1.00840336 12.102521,0.988235294 C11.9512605,0.98487395 11.7663866,0.981512605 11.6117647,0.98487395 C10.5260504,0.994957983 6.99327731,1.37815126 6.99327731,5.89243697 L6.99327731,7.56638655 C8.76134454,7.56302521 14.5731092,7.55630252 17.2789916,7.55630252 C18.4487395,7.55630252 19.3495798,7.89579832 19.9613445,8.56134454 C20.8420168,9.53277311 20.7445378,10.8168067 20.7411765,10.8739496 L20.7411765,10.8739496 Z M11.8470588,17.7210084 C12.8285714,17.7042017 14.0016807,17.2907563 14.0016807,15.4285714 C14.0016807,13.5596639 12.8184874,13.1428571 11.8268908,13.1159664 L11.605042,13.112605 L11.5478992,13.112605 C10.5798319,13.1226891 9.42016807,13.5260504 9.42016807,15.405042 C9.42016807,17.2941176 10.589916,17.707563 11.5747899,17.7210084 L11.8470588,17.7210084 L11.8470588,17.7210084 Z M11.8470588,12.1310924 C12.4857143,12.1478992 14.9764706,12.4033613 14.9764706,15.4252101 C14.9764706,18.4571429 12.4823529,18.692437 11.8605042,18.702521 C11.8,18.7058824 11.7361345,18.7058824 11.6689076,18.7058824 L11.5613445,18.7058824 C10.9058824,18.6957983 8.44201681,18.4571429 8.44201681,15.405042 C8.44201681,12.3596639 10.8823529,12.1310924 11.5378151,12.1277311 L11.6016807,12.1277311 C11.6890756,12.1277311 11.7731092,12.1277311 11.8470588,12.1310924 L11.8470588,12.1310924 Z" id="Candado-abierto_1Light"></path>
        </g>
    </g>
</svg>

<svg width="24" height="24" viewBox="0 0 24 24" xmlns="http://www.w3.org/2000/svg"><path d="M19.763 10.834c.003-.047.06-.965-.531-1.61-.417-.454-1.076-.68-1.956-.68-3.126 0-10.397.01-10.773.01h-.078c-.003 0-.043-.003-.117-.003-.303 0-1.126.05-1.691.578-.404.377-.609.948-.609 1.695v9.536c-.003.043-.05.968.548 1.61.414.443 1.062.669 1.92.669l10.8-.007c.043-.003 1.166.067 1.879-.605.403-.383.608-.951.608-1.69-.003-3.134 0-9.503 0-9.503zm.978.04s-.003 6.34 0 9.462c0 1.025-.31 1.842-.924 2.417-1.025.965-2.518.87-2.575.864l-10.766.007c-1.147 0-2.037-.337-2.646-.992-.887-.961-.806-2.256-.803-2.31v-9.495c0-1.039.312-1.856.934-2.427.67-.618 1.52-.78 2.05-.82V5.896C6.016.333 10.668.01 11.599 0c.175.003.363 0 .528.003 1.056.027 4.565.4 5.442 4.148a.492.492 0 01-.363.592.484.484 0 01-.585-.356c0-.004 0-.007-.003-.01-.716-3.06-3.637-3.369-4.514-3.389-.152-.003-.337-.006-.491-.003-1.086.01-4.619.393-4.619 4.907v1.674c1.768-.003 7.58-.01 10.286-.01 1.17 0 2.07.34 2.682 1.005.881.972.784 2.256.78 2.313zm-8.894 6.847c.982-.017 2.155-.43 2.155-2.292 0-1.87-1.184-2.286-2.175-2.313l-.222-.003h-.057c-.968.01-2.128.413-2.128 2.292 0 1.89 1.17 2.303 2.155 2.316h.272zm0-5.59c.639.017 3.13.272 3.13 3.294 0 3.032-2.495 3.267-3.116 3.278-.061.003-.125.003-.192.003h-.108c-.655-.01-3.119-.249-3.119-3.301 0-3.045 2.44-3.274 3.096-3.277h.064c.087 0 .171 0 .245.003z" fill="#5CB615" fill-rule="nonzero"/></svg>
